components/Company/logos/logo-balbix.svg

<svg height="140" viewBox="0 0 400 140" width="400" xmlns="http://www.w3.org/2000/svg"><g fill="none"><g fill="#000" transform="translate(127.854839 40.863878)"><path d="m0 56.4194634v-53.93414633h25.0198876c3.8117255-.10323098 7.5076737 1.31849167 10.2716958 3.95121952 2.7511918 2.51142508 4.2728323 6.10048121 4.1670245 9.82865851.2575814 4.7122958-2.5046489 9.066721-6.8714511 10.8322683 6.5042621 1.0012632 11.1846414 6.7920466 10.8117926 13.3768537.1268238 4.3167675-1.5856053 8.4835856-4.7090925 11.4585366-3.1168498 3.0225661-7.3271093 4.6431411-11.661361 4.4885853zm14.6713167-32.4256829h7.0961629c1.2686362.017387 2.4858523-.5018375 3.3528694-1.430224.867017-.9283866 1.3035594-2.1799777 1.2024729-3.4475565.0427989-1.2378459-.4182407-2.4399608-1.277275-3.3303678-.8590343-.8904069-2.042271-1.3926187-3.2780673-1.391342h-7.0961629zm0 20.3487805h9.114627c1.4344611.073455 2.8356927-.4490093 3.8734681-1.4442644s1.6202993-2.3752666 1.6104158-3.8148088c-.0198263-1.4245558-.6305415-2.7765429-1.6856124-3.7312884-1.0550709-.9547454-2.4591833-1.4259983-3.8751466-1.3005896h-9.0377519z"/><path d="m52.7343459 22.832122c3.5102508-3.8716939 8.5290342-6.0189084 13.7468444-5.8813903 5.635536 0 9.189531 1.5488781 10.7309752 4.5656342v-4.0993903h13.9794409v39.0044634h-13.9794409v-4.1013658c-1.5414442 3.0187317-5.0954392 4.5656341-10.7309752 4.5656341-5.2008504.1311027-10.2073995-1.9828166-13.7468444-5.8043414-7.3117548-7.9913754-7.3117548-20.2598442 0-28.2512196zm16.754829 21.5124146c4.0070899-.3610413 7.0021709-3.8489055 6.7615433-7.8740257-.2406276-4.0251201-3.6298085-7.1295972-7.6512433-7.0085102-4.0214347.1210869-7.218559 3.4238801-7.2176662 7.4562188.2263422 4.2795006 3.8364407 7.5855336 8.1093374 7.4263171z"/><path d="m98.2917116 56.4194634v-53.93414633h14.2869414v53.93414633z"/><path d="m119.678758 56.4194634v-53.93414633h13.97747v19.02314633c1.468511-3.0147805 5.09741-4.5676097 10.732946-4.5676097 5.217465-.1395699 10.236107 2.0089211 13.742902 5.8833658 7.318326 7.9888116 7.318326 20.262408 0 28.2512195-3.536225 3.823996-8.542477 5.9391159-13.742902 5.8063171-5.635536 0-9.264435-1.5488781-10.732946-4.5656341v4.1013658h-13.97747zm21.70046-12.0749268c4.00709-.3610413 7.002171-3.8489055 6.761544-7.8740257-.240628-4.0251201-3.629809-7.1295972-7.651244-7.0085102-4.021434.1210869-7.218559 3.4238801-7.217666 7.4562188.229436 4.2764372 3.835189 7.5800973 8.105395 7.4263171z"/><path d="m170.560217 13.3906829c-1.480336-1.4582435-2.314148-3.45137489-2.314148-5.53170729s.833812-4.07346377 2.314148-5.53170732c1.47084-1.48625878 3.472985-2.32225461 5.561618-2.32225461s4.090777.83599583 5.561617 2.32225461c1.480337 1.45824355 2.314148 3.45137492 2.314148 5.53170732s-.833811 4.07346379-2.314148 5.53170729c-3.096357 3.01803-8.026878 3.01803-11.123235 0zm-1.541444 43.0287805v-39.006439h14.286941v39.006439z"/><path d="m186.234852 56.421439 14.586557-20.4297805-13.049055-18.5707317h15.522857l5.716353 8.1276586 5.716353-8.1276586h15.524828l-13.054969 18.5707317 14.600355 20.4297805h-15.601702l-7.182894-9.9057073-7.171067 9.9057073h-15.599731z"/></g><g fill="#662483" transform="translate(28 30)"><path d="m17.9316093 17.9760732h44.8378936v17.9760731h-44.8378936z"/><path d="m17.9316093 44.9411707h44.8378936v17.9740976h-44.8378936z"/><path d="m71.7382643 71.9042927h-62.77738752v-26.963122h-8.96087678v35.9560976h80.710968v-35.9560976h-8.9687614z"/><path d="m0 0v35.9560976h8.96087678v-26.97497565h62.77738752v26.97102435h8.9727037v-35.95609752z"/></g><path d="m1.78842857 11.094c-1.1621751-1.209377-1.80927415-2.88173445-1.78842857-4.622-.02724944-1.73050086.62166511-3.39376232 1.78842857-4.584 2.46748916-2.51687327 6.3316537-2.51687327 8.79914283 0 1.1689459 1.20148888 1.8273869 2.8679864 1.8207628 4.6081773-.0067246 1.7401909-.6779263 3.40077395-1.8560485 4.5918227-2.45339848 2.518096-6.31045864 2.518096-8.76385713 0zm4.39957143-9.282c-1.16644197-.04472583-2.29860995.42923784-3.13075283 1.31063865-.83214287.8814008-1.29098325 2.09262376-1.2688186 3.34936135.04910062 2.56837626 1.99650238 4.6228455 4.38192857 4.6228455 2.3854262 0 4.33282796-2.05446924 4.38192856-4.6228455.0309253-1.25300884-.4201382-2.46412332-1.2464871-3.34684246-.82634888-.88271913-1.95457977-1.35863229-3.1177986-1.31515754zm-2.18771429 7.78v-6.432h2.43285715c.53539602-.02519723 1.05697181.1871051 1.44304194.58737613.38607012.40027102.60286846.95350259.5998152 1.53062387.04008325.75558827-.31930284 1.47082189-.92857143 1.848l1.39471429 2.466h-1.75314286l-1.144-2.118h-.53671429v2.118zm1.50242858-3.4h.82271428c.46428572 0 .715-.27.715-.848.00754532-.20002344-.06048279-.39480509-.18855989-.53989453-.12807709-.14508944-.30527442-.22810625-.49115439-.23010547h-.858z" fill="#000" transform="translate(359 43)"/></g></svg>

<?xml version="1.0" encoding="UTF-8"?>
<svg width="400px" height="140px" viewBox="0 0 400 140" version="1.1" xmlns="http://www.w3.org/2000/svg" xmlns:xlink="http://www.w3.org/1999/xlink">
    <title>Artboardl</title>
    <g id="Artboard" stroke="none" stroke-width="1" fill="none" fill-rule="evenodd">
        <g id="balbix" transform="translate(28.000000, 30.000000)" fill-rule="nonzero">
            <g id="Group_7">
                <g id="Group_5" transform="translate(99.854839, 10.863878)" fill="#000000">
                    <path d="M0,56.4194634 L0,2.48531707 L25.0198876,2.48531707 C28.8316131,2.38208609 32.5275613,3.80380874 35.2915834,6.43653659 C38.0427752,8.94796167 39.5644157,12.5370178 39.4586079,16.2651951 C39.7161893,20.9774909 36.953959,25.3319161 32.5871568,27.0974634 C39.0914189,28.0987266 43.7717982,33.88951 43.3989494,40.4743171 C43.5257732,44.7910846 41.8133441,48.9579027 38.6898569,51.9328537 C35.5730071,54.9554198 31.3627476,56.5759948 27.0284959,56.421439 L0,56.4194634 Z M14.6713167,23.9937805 L21.7674796,23.9937805 C23.0361158,24.0111675 24.2533319,23.491943 25.120349,22.5635565 C25.987366,21.6351699 26.4239084,20.3835788 26.3228219,19.116 C26.3656208,17.8781541 25.9045812,16.6760392 25.0455469,15.7856322 C24.1865126,14.8952253 23.0032759,14.3930135 21.7674796,14.3942902 L14.6713167,14.3942902 L14.6713167,23.9937805 Z M14.6713167,44.342561 L23.7859437,44.342561 C25.2204048,44.416016 26.6216364,43.8935517 27.6594118,42.8982966 C28.6971872,41.9030415 29.2797111,40.52303 29.2698276,39.0834878 C29.2500013,37.658932 28.6392861,36.3069449 27.5842152,35.3521994 C26.5291443,34.397454 25.1250319,33.9262011 23.7090686,34.0516098 L14.6713167,34.0516098 L14.6713167,44.342561 Z" id="Path_3"></path>
                    <path d="M52.7343459,22.832122 C56.2445967,18.9604281 61.2633801,16.8132136 66.4811903,16.9507317 C72.1167263,16.9507317 75.6707213,18.4996098 77.2121655,21.5163659 L77.2121655,17.4169756 L91.1916064,17.4169756 L91.1916064,56.421439 L77.2121655,56.421439 L77.2121655,52.3200732 C75.6707213,55.3388049 72.1167263,56.8857073 66.4811903,56.8857073 C61.2803399,57.01681 56.2737908,54.9028907 52.7343459,51.0813659 C45.4225911,43.0899905 45.4225911,30.8215217 52.7343459,22.8301463 L52.7343459,22.832122 Z M69.4891749,44.3445366 C73.4962648,43.9834953 76.4913458,40.4956311 76.2507182,36.4705109 C76.0100906,32.4453908 72.6209097,29.3409137 68.5994749,29.4620007 C64.5780402,29.5830876 61.3809159,32.8858808 61.3818087,36.9182195 C61.6081509,41.1977201 65.2182494,44.5037531 69.4911461,44.3445366 L69.4891749,44.3445366 Z" id="Path_4"></path>
                    <polygon id="Path_5" points="98.2917116 56.4194634 98.2917116 2.48531707 112.578653 2.48531707 112.578653 56.4194634"></polygon>
                    <path d="M119.678758,56.4194634 L119.678758,2.48531707 L133.656228,2.48531707 L133.656228,21.5084634 C135.124739,18.4936829 138.753638,16.9408537 144.389174,16.9408537 C149.606639,16.8012838 154.625281,18.9497748 158.132076,22.8242195 C165.450402,30.8130311 165.450402,43.0866275 158.132076,51.075439 C154.595851,54.899435 149.589599,57.0145549 144.389174,56.8817561 C138.753638,56.8817561 135.124739,55.332878 133.656228,52.316122 L133.656228,56.4174878 L119.678758,56.4174878 L119.678758,56.4194634 Z M141.379218,44.3445366 C145.386308,43.9834953 148.381389,40.4956311 148.140762,36.4705109 C147.900134,32.4453908 144.510953,29.3409137 140.489518,29.4620007 C136.468084,29.5830876 133.270959,32.8858808 133.271852,36.9182195 C133.501288,41.1946567 137.107041,44.4983168 141.377247,44.3445366 L141.379218,44.3445366 Z" id="Path_6"></path>
                    <path d="M170.560217,13.3906829 C169.079881,11.9324394 168.246069,9.93930801 168.246069,7.85897561 C168.246069,5.77864321 169.079881,3.78551184 170.560217,2.32726829 C172.031057,0.84100951 174.033202,0.00501367843 176.121835,0.00501367843 C178.210468,0.00501367843 180.212612,0.84100951 181.683452,2.32726829 C183.163789,3.78551184 183.9976,5.77864321 183.9976,7.85897561 C183.9976,9.93930801 183.163789,11.9324394 181.683452,13.3906829 C178.587095,16.4087129 173.656574,16.4087129 170.560217,13.3906829 L170.560217,13.3906829 Z M169.018773,56.4194634 L169.018773,17.4130244 L183.305714,17.4130244 L183.305714,56.4194634 L169.018773,56.4194634 Z" id="Path_7"></path>
                    <polygon id="Path_8" points="186.234852 56.421439 200.821409 35.9916585 187.772354 17.4209268 203.295211 17.4209268 209.011564 25.5485854 214.727917 17.4209268 230.252745 17.4209268 217.197776 35.9916585 231.798131 56.421439 216.196429 56.421439 209.013535 46.5157317 201.842468 56.421439 186.242737 56.421439"></polygon>
                </g>
                <g id="Group_6" fill="#662483">
                    <polygon id="Rectangle_14" points="17.9316093 17.9760732 62.7695029 17.9760732 62.7695029 35.9521463 17.9316093 35.9521463"></polygon>
                    <polygon id="Rectangle_15" points="17.9316093 44.9411707 62.7695029 44.9411707 62.7695029 62.9152683 17.9316093 62.9152683"></polygon>
                    <polygon id="Path_9" points="71.7382643 71.9042927 8.96087678 71.9042927 8.96087678 44.9411707 0 44.9411707 0 80.8972683 80.710968 80.8972683 80.710968 44.9411707 71.7422066 44.9411707"></polygon>
                    <polygon id="Path_10" points="0 -8.67361738e-19 0 35.9560976 8.96087678 35.9560976 8.96087678 8.98112195 71.7382643 8.98112195 71.7382643 35.9521463 80.710968 35.9521463 80.710968 -0.00395121951"></polygon>
                </g>
            </g>
            <g id="Group_8" transform="translate(331.000000, 13.000000)" fill="#000000">
                <path d="M1.78842857,11.094 C0.626253475,9.884623 -0.020845581,8.21226555 5.07528589e-13,6.472 C-0.0272494393,4.74149914 0.621665114,3.07823768 1.78842857,1.888 C4.25591773,-0.628873267 8.12008227,-0.628873267 10.5875714,1.888 C11.7565173,3.08948888 12.4149583,4.7559864 12.4083342,6.4961773 C12.4016096,8.2363682 11.7304079,9.89695125 10.5522857,11.088 C8.09888722,13.606096 4.24182706,13.606096 1.78842857,11.088 L1.78842857,11.094 Z M6.188,1.812 C5.02155803,1.76727417 3.88939005,2.24123784 3.05724717,3.12263865 C2.2251043,4.00403945 1.76626392,5.21526241 1.78842857,6.472 C1.83752919,9.04037626 3.78493095,11.0948455 6.17035714,11.0948455 C8.55578334,11.0948455 10.5031851,9.04037626 10.5522857,6.472 C10.583211,5.21899116 10.1321475,4.00787668 9.3057986,3.12515754 C8.47944972,2.24243841 7.35121883,1.76652525 6.188,1.81 L6.188,1.812 Z M4.00028571,9.592 L4.00028571,3.16 L6.43314286,3.16 C6.96853888,3.13480277 7.49011467,3.3471051 7.8761848,3.74737613 C8.26225492,4.14764715 8.47905326,4.70087872 8.476,5.278 C8.51608325,6.03358827 8.15669716,6.74882189 7.54742857,7.126 L8.94214286,9.592 L7.189,9.592 L6.045,7.474 L5.50828571,7.474 L5.50828571,9.592 L4.00028571,9.592 L4.00028571,9.592 Z M5.50271429,6.192 L6.32542857,6.192 C6.78971429,6.192 7.04042857,5.922 7.04042857,5.344 C7.04797389,5.14397656 6.97994578,4.94919491 6.85186868,4.80410547 C6.72379159,4.65901603 6.54659426,4.57599922 6.36071429,4.574 L5.50271429,4.574 L5.50271429,6.192 Z" id="Path_11"></path>
            </g>
        </g>
    </g>
</svg>
